brands/pid-tram.svg

<?xml version="1.0" encoding="UTF-8"?>
<!-- Generator: Adobe Illustrator 16.0.3, SVG Export Plug-In . SVG Version: 6.00 Build 0)  -->
<!DOCTYPE svg PUBLIC "-//W3C//DTD SVG 1.1//EN" "http://www.w3.org/Graphics/SVG/1.1/DTD/svg11.dtd">
<svg version="1.1" xmlns="http://www.w3.org/2000/svg" xmlns:xlink="http://www.w3.org/1999/xlink" x="0px" y="0px" width="24px" height="24px" viewBox="0 0 24 24" enable-background="new 0 0 24 24" xml:space="preserve">
<g id="Pozadi">
	<rect y="0" width="24" height="24"/>
</g>
<g id="Piktogram">
	<g>
		<path fill="#FFFFFF" d="M17.533,7.029c0-1.188-0.973-2.16-2.161-2.16h-3.067V2.848h3.077V2.25H8.619v0.598h3.077v2.021H8.627    c-1.188,0-2.16,0.972-2.16,2.16v12.598h2.529L7.666,21.75h1.245l1.248-2.124h3.684l1.248,2.124h1.245l-1.33-2.124h2.528V7.029z     M9.206,5.551h5.588v1.313H9.206V5.551z M9.255,18.448c-0.447,0-0.81-0.362-0.81-0.81c0-0.447,0.363-0.81,0.81-0.81    s0.81,0.363,0.81,0.81C10.065,18.085,9.702,18.448,9.255,18.448 M14.843,18.448c-0.447,0-0.81-0.362-0.81-0.81    c0-0.447,0.362-0.81,0.81-0.81s0.81,0.363,0.81,0.81C15.653,18.085,15.29,18.448,14.843,18.448 M16.324,15.65H7.676V8.643    c0-0.594,0.486-1.08,1.08-1.08h6.489c0.594,0,1.08,0.486,1.08,1.08V15.65z"/>
		<polygon fill="#FFFFFF" points="9.121,13.895 8.847,14.953 15.153,14.953 14.88,13.895   "/>
	</g>
</g>
<g id="Zákaz">
</g>
</svg>

<svg xmlns="http://www.w3.org/2000/svg" xml:space="preserve" viewBox="0 0 24 24"><path d="M0 0h24v24H0z"/><g fill="#FFF"><path d="M17.53 7.03c0-1.19-.97-2.16-2.16-2.16h-3.06V2.85h3.07v-.6H8.62v.6h3.08v2.02H8.63c-1.2 0-2.16.97-2.16 2.16v12.6H9l-1.33 2.12H8.9l1.25-2.12h3.68l1.25 2.12h1.25L15 19.63h2.52V7.03zM9.21 5.55h5.58v1.31H9.21v-1.3zm.04 12.9a.81.81 0 1 1 0-1.62.81.81 0 0 1 0 1.62m5.6 0a.81.81 0 1 1 0-1.62.81.81 0 0 1 0 1.62m1.47-2.8H7.68v-7c0-.6.48-1.09 1.08-1.09h6.49c.59 0 1.08.49 1.08 1.08v7.01z"/><path d="m9.12 13.89-.27 1.06h6.3l-.27-1.06z"/></g></svg>
